X:22
T: Ural Rowan Tree
O:russia
C: E.Rodygin
Z:Transcrit et/ou corrig par Michel BELLON - 2006-06-18
Z:Pour toute observation mailto:galouvielle@free.fr
M: 6/8
L: 1/8
K: Em
|: "Em"E2E G2E | "Am"A3 E2F \
| "Em"G2F "B7"B2A | "Em"E3- E3 \
| "Em"E2B B2G | "Am"A3 E2F \
| "G"GFG "D7"B2A | "G"G3- G3 |
| "G"d2d "E7"dcB | "Am"A3 E2E \
| "D7"F2G AGA | "G"B3- "B7"B3 \
| "Em"G2G GAB | "Am"d3 c2B \
| "B7"A2F B2A | "Em"E3- E3 ||
|: "E7"E2[ec] [ec]>[dB][ec] | "Am"[d3B3] [c3A3] \
| "D7"[c2A2][dB] [ec]>[dB][cA] | "G"[B3G3]- "B7"[B3F3] \
| "Em"[G2E2][GE] [GE][AF][BG] | "Am"[d3B3] [c2A2][BG] \
| "B7"[A2F2][F^D] [B2G2][AF] |1 "Em"[G3E3]- [G3E3] :|2 "Em"[e3G3E3]- [e3G3E3] :|
%%footer $D   Galouvielle-MBe 2008 \n-- (russia)
